icons/line/translate.svg

<svg width="24" height="24" fill="none" xmlns="http://www.w3.org/2000/svg"><path d="M11 21l1.5-3m8.5 3l-1.5-3m-7 0l3.5-7 3.5 7m-7 0h7M3 5h6m6 0h-2.5M3 18c3.167-1.667 9.5-6.6 9.5-13m0 0H9m2 9L7 9m2-4V3" stroke="currentColor" stroke-width="2" stroke-linecap="round" stroke-linejoin="round"/></svg>

<svg width="24" height="24" viewBox="0 0 24 24" fill="none" xmlns="http://www.w3.org/2000/svg">
<path d="M11 21L12.5 18M21 21L19.5 18M12.5 18L16 11L19.5 18M12.5 18H19.5M3 5H9M15 5H12.5M3 18C6.16667 16.3333 12.5 11.4 12.5 5M12.5 5H9M11 14L7 9M9 5V3" stroke="currentColor" stroke-width="2" stroke-linecap="round" stroke-linejoin="round"/>
</svg>
